src/images/farfetch-logo.svg

<svg width="168" height="118" viewBox="0 0 168 118" fill="none" xmlns="http://www.w3.org/2000/svg">
<path d="M50.6804 58.3681C50.357 57.6609 50.1894 57.2939 49.9631 56.7435C49.7543 57.2939 49.6838 57.4626 49.2899 58.4096L48.5196 60.3153H51.5506L50.6804 58.3681ZM47.6495 62.6739L46.5676 65.0768H43.4073L48.9106 53.4084H51.577L57.0774 65.0768H53.9641L52.7882 62.6739H47.6495ZM64.9501 58.4658C65.594 58.4658 65.8615 58.4244 66.1261 58.2823C66.3329 58.1621 66.5052 57.9897 66.6258 57.7822C66.7464 57.5746 66.8113 57.339 66.814 57.0986C66.8101 56.8584 66.7448 56.6233 66.6243 56.4159C66.5038 56.2086 66.3322 56.036 66.1261 55.9149C65.8732 55.7728 65.6057 55.7433 64.9501 55.7433H61.0902V58.4421L64.9501 58.4658ZM61.0902 65.0768H58.1857V53.4084H65.7498C67.0962 53.4084 67.8253 53.58 68.5132 54.0002C68.95 54.2792 69.3093 54.6653 69.5571 55.1224C69.805 55.5795 69.9334 56.0925 69.9301 56.6133C69.9301 57.9982 69.2158 59.0281 67.9105 59.5726C69.06 59.9839 69.4127 60.632 69.4392 62.4549C69.4951 63.9109 69.5803 64.334 69.9301 65.0827H66.7317C66.52 64.4317 66.4788 64.1654 66.5082 63.0468C66.5082 61.354 66.0437 60.8303 64.5562 60.8303H61.0902V65.0768ZM83.512 65.0768V53.4084H94.1188V55.7758H86.4165V57.9657H93.2221V60.3331H86.4165V62.736H94.1188V65.1035L83.512 65.0768ZM102.538 65.0768H99.6338V55.7669H95.621V53.3995H106.536V55.7669H102.538V65.0768ZM120.765 60.5136C119.936 63.8339 117.678 65.5 113.933 65.5C109.667 65.5 106.972 63.1119 106.972 59.3565C106.972 55.5095 109.75 53 114.001 53C116.038 53 117.637 53.5356 118.898 54.6809C119.756 55.3989 120.353 56.3821 120.597 57.4774H117.467C116.879 55.9978 115.729 55.2727 113.989 55.2727C111.658 55.2727 110.047 56.927 110.047 59.3003C110.047 61.6145 111.646 63.2273 113.933 63.2273C115.785 63.2273 116.893 62.3928 117.567 60.5136H120.765ZM131.107 53.4084V57.9568H125.134V53.4084H122.229V65.0768H125.134V60.3153H131.098V65.0768H134V53.4084H131.107ZM34 65.0768V53.4084H44.1717V55.7758H36.9045V57.9657H43.569V60.3331H36.9045V65.0768H34ZM71.8381 65.0768V53.4084H82.0127V55.7758H74.7426V57.9657H81.4218V60.3331H74.7426V65.0768H71.8381Z" fill="black"/>
</svg>

<?xml version="1.0" encoding="UTF-8"?>
<svg id="Layer_1" xmlns="http://www.w3.org/2000/svg" version="1.1" viewBox="0 0 168 118">
  <!-- Generator: Adobe Illustrator 30.2.1, SVG Export Plug-In . SVG Version: 2.1.1 Build 1)  -->
  <defs>
    <style>
      .st0 {
        fill: #e3e3e3;
      }
    </style>
  </defs>
  <path class="st0" d="M50.68,58.37c-.32-.71-.49-1.07-.72-1.62-.21.55-.28.72-.67,1.67l-.77,1.91h3.03l-.87-1.95ZM47.65,62.67l-1.08,2.4h-3.16l5.5-11.67h2.67l5.5,11.67h-3.11l-1.18-2.4h-5.14ZM64.95,58.47c.64,0,.91-.04,1.18-.18.21-.12.38-.29.5-.5.12-.21.19-.44.19-.68,0-.24-.07-.48-.19-.68-.12-.21-.29-.38-.5-.5-.25-.14-.52-.17-1.18-.17h-3.86v2.7l3.86.02ZM61.09,65.08h-2.9v-11.67h7.56c1.35,0,2.08.17,2.76.59.44.28.8.67,1.04,1.12.25.46.38.97.37,1.49,0,1.38-.71,2.41-2.02,2.96,1.15.41,1.5,1.06,1.53,2.88.06,1.46.14,1.88.49,2.63h-3.2c-.21-.65-.25-.92-.22-2.04,0-1.69-.46-2.22-1.95-2.22h-3.47v4.25ZM83.51,65.08v-11.67h10.61v2.37h-7.7v2.19h6.81v2.37h-6.81v2.4h7.7v2.37l-10.61-.03ZM102.54,65.08h-2.9v-9.31h-4.01v-2.37h10.92v2.37h-4v9.31ZM120.76,60.51c-.83,3.32-3.09,4.99-6.83,4.99-4.27,0-6.96-2.39-6.96-6.14s2.78-6.36,7.03-6.36c2.04,0,3.64.54,4.9,1.68.86.72,1.45,1.7,1.7,2.8h-3.13c-.59-1.48-1.74-2.2-3.48-2.2-2.33,0-3.94,1.65-3.94,4.03s1.6,3.93,3.89,3.93c1.85,0,2.96-.83,3.63-2.71h3.2ZM131.11,53.41v4.55h-5.97v-4.55h-2.91v11.67h2.91v-4.76h5.96v4.76h2.9v-11.67h-2.89ZM34,65.08v-11.67h10.17v2.37h-7.27v2.19h6.66v2.37h-6.66v4.74h-2.9ZM71.84,65.08v-11.67h10.17v2.37h-7.27v2.19h6.68v2.37h-6.68v4.74h-2.9Z"/>
</svg>
